src/packages/tokens/img/stkBNB.svg

<svg width="152" height="150" viewBox="0 0 152 150" fill="none" xmlns="http://www.w3.org/2000/svg">
<circle cx="75.6637" cy="74.3363" r="59.7345" fill="#F0B90B"/>
<path d="M151.327 74.3363C151.327 84.2726 149.37 94.1116 145.568 103.292C141.765 112.472 136.192 120.813 129.166 127.839C122.14 134.865 113.799 140.438 104.619 144.24C95.439 148.043 85.6 150 75.6637 150C65.7274 150 55.8884 148.043 46.7085 144.24C37.5285 140.438 29.1874 134.865 22.1614 127.839C15.1354 120.813 9.56201 112.472 5.75955 103.292C1.9571 94.1116 -8.68659e-07 84.2726 0 74.3363H18.1347C18.1347 81.8911 19.6227 89.372 22.5138 96.3517C25.4049 103.331 29.6425 109.673 34.9845 115.015C40.3266 120.358 46.6686 124.595 53.6483 127.486C60.628 130.377 68.1089 131.865 75.6637 131.865C83.2185 131.865 90.6994 130.377 97.6791 127.486C104.659 124.595 111.001 120.358 116.343 115.015C121.685 109.673 125.923 103.331 128.814 96.3517C131.705 89.372 133.193 81.8911 133.193 74.3363H151.327Z" fill="#C73238"/>
<path d="M135.398 74.3363C135.398 82.1808 133.853 89.9484 130.851 97.1957C127.849 104.443 123.449 111.028 117.902 116.575C112.356 122.122 105.77 126.522 98.5231 129.524C91.2758 132.526 83.5082 134.071 75.6637 134.071C67.8193 134.071 60.0516 132.526 52.8043 129.524C45.557 126.522 38.9719 122.122 33.425 116.575C27.8782 111.028 23.4782 104.443 20.4762 97.1957C17.4743 89.9484 15.9292 82.1808 15.9292 74.3363L75.6637 74.3363H135.398Z" fill="#070B09"/>
<path d="M48.9666 75.3462L49.0097 91.1414L62.4308 99.039V108.286L41.1552 95.8081V70.7273L48.9666 75.3462ZM48.9666 59.5511V68.7553L41.1504 64.1317V54.9274L48.9666 50.3037L56.8211 54.9274L48.9666 59.5511ZM68.0357 54.9274L75.8519 50.3037L83.7064 54.9274L75.8519 59.5511L68.0357 54.9274Z" fill="white"/>
<path d="M54.6147 87.8675V78.6201L62.4309 83.2438V92.4481L54.6147 87.8675ZM68.0358 102.351L75.852 106.975L83.7065 102.351V111.555L75.852 116.179L68.0358 111.555V102.351ZM94.9163 54.9274L102.732 50.3037L110.587 54.9274V64.1317L102.732 68.7553V59.5511L94.9163 54.9274ZM102.732 91.1414L102.776 75.3462L110.592 70.7225V95.8033L89.3162 108.282V99.0342L102.732 91.1414Z" fill="white"/>
<path d="M97.1275 87.8676L89.3113 92.4482V83.244L97.1275 78.6204V87.8676Z" fill="white"/>
<path d="M97.1277 62.825L97.1708 72.0723L83.7114 79.9699V95.8034L75.8952 100.384L68.0789 95.8034V79.9699L54.6195 72.0723V62.825L62.4693 58.2013L75.8473 66.1372L89.3067 58.2013L97.1612 62.825H97.1277ZM54.6147 47.0346L75.8521 34.5133L97.1277 47.0346L89.3115 51.6582L75.8521 43.7224L62.431 51.6582L54.6147 47.0346Z" fill="white"/>
</svg>

<svg xmlns="http://www.w3.org/2000/svg" width="152" height="150" fill="none" xmlns:v="https://vecta.io/nano"><circle cx="75.664" cy="74.336" r="59.735" fill="#f0b90b"/><path d="M151.327 74.336c0 9.936-1.957 19.775-5.759 28.956a75.67 75.67 0 0 1-16.402 24.547c-7.026 7.026-15.367 12.599-24.547 16.401S85.6 150 75.664 150s-19.775-1.957-28.955-5.76-17.521-9.375-24.547-16.401S9.562 112.472 5.76 103.292A75.67 75.67 0 0 1 0 74.336h18.135a57.53 57.53 0 0 0 16.85 40.679c5.342 5.343 11.684 9.58 18.664 12.471a57.53 57.53 0 0 0 44.031 0 57.51 57.51 0 0 0 18.664-12.471 57.53 57.53 0 0 0 16.85-40.679h18.134z" fill="#c73238"/><path d="M135.398 74.336c0 7.845-1.545 15.612-4.547 22.859s-7.402 13.832-12.949 19.379-12.132 9.947-19.379 12.949-15.015 4.547-22.859 4.547-15.612-1.545-22.859-4.547-13.832-7.402-19.379-12.949a59.74 59.74 0 0 1-12.949-19.379c-3.002-7.247-4.547-15.015-4.547-22.859h59.735 59.734z" fill="#070b09"/><path d="M48.967 75.346l.043 15.795 13.421 7.898v9.247L41.155 95.808V70.727l7.811 4.619zm0-15.795v9.204l-7.816-4.624v-9.204l7.816-4.624 7.855 4.624-7.855 4.624zm19.069-4.624l7.816-4.624 7.855 4.624-7.855 4.624-7.816-4.624zM54.615 87.868V78.62l7.816 4.624v9.204l-7.816-4.581zm13.421 14.483l7.816 4.624 7.855-4.624v9.204l-7.855 4.624-7.816-4.624v-9.204zm26.881-47.424l7.816-4.624 7.855 4.624v9.204l-7.855 4.624v-9.204l-7.816-4.624zm7.816 36.214l.044-15.795 7.816-4.624v25.081l-21.276 12.479v-9.248l13.416-7.893zm-5.605-3.273l-7.816 4.581v-9.204l7.816-4.624v9.247zm0-25.043l.043 9.247-13.459 7.898v15.834l-7.816 4.581-7.816-4.581V79.97l-13.46-7.898v-9.247l7.85-4.624 13.378 7.936 13.459-7.936 7.854 4.624h-.033zm-42.513-15.79l21.237-12.521 21.276 12.521-7.816 4.624-13.459-7.936-13.421 7.936-7.816-4.624z" fill="#fff"/></svg>
